assets/icons/work.svg

<svg fill="none" height="24" viewBox="0 0 24 24" width="24" xmlns="http://www.w3.org/2000/svg"><path d="m14 3c1.6569 0 3 1.34315 3 3h3c1.1046 0 2 .89543 2 2v11c0 1.1046-.8954 2-2 2h-16c-1.10457 0-2-.8954-2-2v-11c0-1.10457.89543-2 2-2h3c0-1.65685 1.34315-3 3-3zm-3 9h-7v7h16v-7h-7v1c0 .5523-.4477 1-1 1-.5128 0-.9355-.386-.9933-.8834l-.0067-.1166zm9-4h-16v2h16zm-6-3h-4c-.51283 0-.93551.38604-.99327.88338l-.00673.11662h6c0-.51283-.386-.93551-.8834-.99327z" fill="#000"/></svg>

<svg width="24" height="24" viewBox="0 0 24 24" fill="none" xmlns="http://www.w3.org/2000/svg">
<path d="M14 3C15.6569 3 17 4.34315 17 6H20C21.1046 6 22 6.89543 22 8V19C22 20.1046 21.1046 21 20 21H4C2.89543 21 2 20.1046 2 19V8C2 6.89543 2.89543 6 4 6H7C7 4.34315 8.34315 3 10 3H14ZM11 12H4V19H20V12H13V13C13 13.5523 12.5523 14 12 14C11.4872 14 11.0645 13.614 11.0067 13.1166L11 13V12ZM20 8H4V10H20V8ZM14 5H10C9.48717 5 9.06449 5.38604 9.00673 5.88338L9 6H15C15 5.48717 14.614 5.06449 14.1166 5.00673L14 5Z" fill="black"/>
</svg>
